X: 152062
T: Old House (The)
C: Joe Liddy
S: "The Leitrim Fiddler" (Dublin 1981)
L: 1/8
M: 6/8
R: jig
Q: 1/4 = 170
K: G
F | DGG =FGA | GAc def | gfd dcA | cAG FEF |
DGG =FGA | GAc def | gfd cAc | dBG G2F ||
DGG =FGA | GAc def | gfd dcA | cAG FDC |
[G,D]GG AGF | GAc def | gfd cAc | dBG G2c ||
dgg gfg | gfd ega | gfd fdc | dcA GFD |
dgg gfg | gdc def | gfd cAc | dBG G2c ||
dgg afd | fdc def | gfg dcd | AGA GFD |
[A,D]B,C DEF | GAc def | gfd cAc | dBG G3 ||
